dist/svgs/crypto-icons/icons/xpm.svg

<?xml version="1.0" encoding="UTF-8" standalone="yes"?>
<svg xmlns="http://www.w3.org/2000/svg" xmlns:xlink="http://www.w3.org/1999/xlink" width="512px" height="512px" viewBox="0 0 384 384" version="1.1">
  <g id="surface1">
    <path style=" stroke:none;fill-rule:nonzero;fill:rgb(0%,0%,0%);fill-opacity:1;" d="M 21.777344 0 L 95.203125 0 L 95.203125 160.234375 C 95.203125 227.125 154.011719 226.503906 154.011719 226.503906 L 154.011719 0 L 227.746094 0 L 227.746094 226.503906 C 227.746094 226.503906 288.417969 229.921875 288.417969 159.300781 L 288.417969 0 L 361.84375 0 L 361.84375 161.164062 C 361.84375 255.4375 289.039062 287.480469 227.746094 287.480469 L 227.746094 312.0625 L 275.039062 312.0625 L 275.039062 345.351562 L 227.746094 345.351562 L 227.746094 383.621094 L 153.800781 383.621094 L 153.800781 345.351562 L 108.582031 345.351562 L 108.582031 312.0625 L 153.695312 312.0625 L 153.695312 287.171875 C 134.097656 287.171875 21.777344 282.503906 21.777344 154.320312 Z M 21.777344 0 "/>
  </g>
</svg>

<svg xmlns="http://www.w3.org/2000/svg" viewBox="0 0 384 384"><path d="M21.777 0h73.426v160.234c0 66.891 58.809 66.27 58.809 66.27V0h73.734v226.504s60.672 3.418 60.672-67.203V0h73.426v161.164c0 94.274-72.805 126.316-134.098 126.316v24.582h47.293v33.29h-47.293v38.27h-73.945v-38.27h-45.219v-33.29h45.113v-24.89c-19.597 0-131.918-4.668-131.918-132.852zm0 0"/></svg>
